icon/fa/person-walking-dashed-line-arrow-right.svg

<svg xmlns="http://www.w3.org/2000/svg" viewBox="0 0 640 512"><!--! Font Awesome Free 6.1.2 by @fontawesome - https://fontawesome.com License - https://fontawesome.com/license/free (Icons: CC BY 4.0, Fonts: SIL OFL 1.1, Code: MIT License) Copyright 2022 Fonticons, Inc.--><path d="M160 48c0-26.51 21.5-48 48-48s48 21.49 48 48-21.5 48-48 48-48-21.49-48-48zm-47.3 157.4c-15.29 6.8-27.28 19.2-33.48 34.7l-1.51 3.8c-6.56 16.4-25.18 24.4-41.59 17.8-16.41-6.6-24.39-25.2-17.83-41.6l1.51-3.8c12.39-30.9 36.38-55.8 66.86-69.4l11-4.9c20.84-9.2 42.44-14 66.04-14 44.6 0 84.8 26.8 101.9 67.9l14.5 36.8 22.2 10.7c15.8 7.9 22.2 27.1 14.3 42.9-7.9 15.8-27.1 22.2-42.9 14.3L247 287.3c-10.3-5.2-18.4-13.9-22.8-24.5l-9.6-23-19.3 65.5 49.5 54.1c5.4 5.9 9.3 13 11.2 20.8l23 92c4.3 17.2-6.1 34.6-23.2 38.8-17.2 4.3-34.6-6.1-39.7-23.2l-21.2-88.2-70.6-77.1c-14.8-16.1-21.2-38.6-14.7-59.7l16.9-63.5c-.9.4-1.9.8-2.8 1.2l-11 4.9zm-12 138.8 40.7 44.4-14.5 36.2c-2.4 6.1-6 11.6-10.6 16.1l-61.67 61.7c-12.5 12.5-32.76 12.5-45.258 0-12.496-12.5-12.496-32.7 0-45.2L68.73 398l24.96-62.4c2.15 3 4.48 5.8 7.01 8.6zm529.9-110.8c12.5 12.5 12.5 32.7 0 45.2l-80 80c-12.5 12.5-32.7 12.5-45.2 0s-12.5-32.7 0-45.2l25.3-25.4H384c-17.7 0-32-14.3-32-32s14.3-32 32-32h146.7l-25.3-25.4c-12.5-12.5-12.5-32.7 0-45.2s32.7-12.5 45.2 0l80 80zM392 0c13.3 0 24 10.75 24 24v48c0 13.25-10.7 24-24 24s-24-10.75-24-24V24c0-13.25 10.7-24 24-24zm24 168c0 13.3-10.7 24-24 24s-24-10.7-24-24v-16c0-13.3 10.7-24 24-24s24 10.7 24 24v16zm-24 152c13.3 0 24 10.7 24 24v16c0 13.3-10.7 24-24 24s-24-10.7-24-24v-16c0-13.3 10.7-24 24-24zm24 168c0 13.3-10.7 24-24 24s-24-10.7-24-24v-48c0-13.3 10.7-24 24-24s24 10.7 24 24v48z"/></svg>

<svg xmlns="http://www.w3.org/2000/svg" viewBox="0 0 640 512" height="1em" width="1em">
<!--! Font Awesome Free 6.1.2 by @fontawesome - https://fontawesome.com License - https://fontawesome.com/license/free (Icons: CC BY 4.0, Fonts: SIL OFL 1.1, Code: MIT License) Copyright 2022 Fonticons, Inc.-->
  <path d="M160 48C160 21.49 181.5 0 208 0C234.5 0 256 21.49 256 48C256 74.51 234.5 96 208 96C181.5 96 160 74.51 160 48V48zM112.7 205.4C97.41 212.2 85.42 224.6 79.22 240.1L77.71 243.9C71.15 260.3 52.53 268.3 36.12 261.7C19.71 255.1 11.73 236.5 18.29 220.1L19.8 216.3C32.19 185.4 56.18 160.5 86.66 146.9L97.66 142C118.5 132.8 140.1 128 163.7 128C208.3 128 248.5 154.8 265.6 195.9L280.1 232.7L302.3 243.4C318.1 251.3 324.5 270.5 316.6 286.3C308.7 302.1 289.5 308.5 273.7 300.6L247 287.3C236.7 282.1 228.6 273.4 224.2 262.8L214.6 239.8L195.3 305.3L244.8 359.4C250.2 365.3 254.1 372.4 256 380.2L279 472.2C283.3 489.4 272.9 506.8 255.8 511C238.6 515.3 221.2 504.9 216.1 487.8L194.9 399.6L124.3 322.5C109.5 306.4 103.1 283.9 109.6 262.8L126.5 199.3C125.6 199.7 124.6 200.1 123.7 200.5L112.7 205.4zM100.7 344.2L141.4 388.6L126.9 424.8C124.5 430.9 120.9 436.4 116.3 440.9L54.63 502.6C42.13 515.1 21.87 515.1 9.372 502.6C-3.124 490.1-3.124 469.9 9.372 457.4L68.73 398L93.69 335.6C95.84 338.6 98.17 341.4 100.7 344.2H100.7zM630.6 233.4C643.1 245.9 643.1 266.1 630.6 278.6L550.6 358.6C538.1 371.1 517.9 371.1 505.4 358.6C492.9 346.1 492.9 325.9 505.4 313.4L530.7 288H384C366.3 288 352 273.7 352 256C352 238.3 366.3 224 384 224H530.7L505.4 198.6C492.9 186.1 492.9 165.9 505.4 153.4C517.9 140.9 538.1 140.9 550.6 153.4L630.6 233.4zM392 0C405.3 0 416 10.75 416 24V72C416 85.25 405.3 96 392 96C378.7 96 368 85.25 368 72V24C368 10.75 378.7 0 392 0zM416 168C416 181.3 405.3 192 392 192C378.7 192 368 181.3 368 168V152C368 138.7 378.7 128 392 128C405.3 128 416 138.7 416 152V168zM392 320C405.3 320 416 330.7 416 344V360C416 373.3 405.3 384 392 384C378.7 384 368 373.3 368 360V344C368 330.7 378.7 320 392 320zM416 488C416 501.3 405.3 512 392 512C378.7 512 368 501.3 368 488V440C368 426.7 378.7 416 392 416C405.3 416 416 426.7 416 440V488z"/>
</svg>
